Sources/FrostedUI/Resources/Icons.xcassets/sticker24.imageset/sticker-24.svg

<svg width="24" height="24" viewBox="0 0 24 24" fill="none" xmlns="http://www.w3.org/2000/svg" data-fui-icon="true">
  <g clip-path="url(#clip0_6194_108)">
    <path
      d="M14.7379 0.224349C18.1755 -0.388066 21.5262 1.79732 22.3208 5.23789L22.9198 7.83272L22.99 8.15426C24.3466 14.7925 20.2551 21.3402 13.694 23.031L13.3742 23.1088L10.7794 23.7079L10.4473 23.7756C7.12027 24.3683 3.87489 22.3403 2.94915 19.0902L2.86436 18.762L0.884614 10.1868C0.0649246 6.63541 2.27918 3.09186 5.83049 2.27176L14.4057 0.292013L14.7379 0.224349ZM6.16791 3.73331C3.4238 4.36706 1.71284 7.10518 2.34617 9.84938L4.32591 18.4246C4.95966 21.1687 7.69778 22.8797 10.442 22.2463L13.0368 21.6473C13.2783 21.5915 13.5151 21.525 13.7491 21.4548L12.5518 16.2689C11.912 13.4976 13.6403 10.7318 16.4116 10.092L21.5975 8.8947C21.558 8.65359 21.514 8.41159 21.4583 8.17014L20.8592 5.57531C20.2255 2.8312 17.4873 1.12023 14.7431 1.75357L6.16791 3.73331ZM16.749 11.5535C14.7849 12.007 13.5599 13.9673 14.0134 15.9315L15.1663 20.9251C19.2636 19.0644 21.8675 14.8988 21.7436 10.4004L16.749 11.5535Z"
      fill="currentColor"
    />
  </g>
  <defs>
    <clipPath id="clip0_6194_108"><path fill="currentColor" d="M0 0H24V24H0z" /></clipPath>
  </defs>
</svg>

<svg xmlns="http://www.w3.org/2000/svg" width="24" height="24" fill="none" data-fui-icon="true" viewBox="0 0 24 24"><g clip-path="url(#a)"><path fill="currentColor" d="M14.738.224a6.6 6.6 0 0 1 7.583 5.014l.599 2.595.07.321c1.357 6.639-2.735 13.186-9.296 14.877l-.32.078-2.595.599-.332.068A6.6 6.6 0 0 1 2.95 19.09l-.085-.328-1.98-8.575A6.6 6.6 0 0 1 5.83 2.272l8.576-1.98zm-8.57 3.51a5.1 5.1 0 0 0-3.822 6.115l1.98 8.576a5.1 5.1 0 0 0 6.116 3.821l2.595-.599c.241-.055.478-.122.712-.192l-1.197-5.186a5.15 5.15 0 0 1 3.86-6.177l5.186-1.197c-.04-.241-.084-.483-.14-.725l-.599-2.595a5.1 5.1 0 0 0-6.116-3.821zm10.581 7.82a3.65 3.65 0 0 0-2.736 4.377l1.153 4.994A11.25 11.25 0 0 0 21.744 10.4z"/></g><defs><clipPath id="a"><path fill="currentColor" d="M0 0h24v24H0z"/></clipPath></defs></svg>
